;FLAVOR:Marlin
;TIME:1950
;Filament used: 1.8004m
;Layer height: 0.15
;MINX:67.394
;MINY:67.394
;MINZ:0.3
;MAXX:132.606
;MAXY:132.606
;MAXZ:10.5
;TARGET_MACHINE.NAME:Prusa i3
;Generated with Cura_SteamEngine 5.7.2
M140 S60
M105
M190 S60
M104 S210
M105
M109 S210
M82 ;absolute extrusion mode
G21 ;metric values
G90 ;absolute positioning
M82 ;set extruder to absolute mode
M107 ;start with the fan off
G28 X0 Y0 ;move X/Y to min endstops
G28 Z0 ;move Z to min endstops
G1 Z15.0 F9000 ;move the platform down 15mm
G92 E0 ;zero the extruded length
G1 F200 E3 ;extrude 3mm of feed stock
G92 E0 ;zero the extruded length again
G1 F9000
;Put printing message on LCD screen
M117 Printing...
G92 E0
G92 E0
G1 F1500 E-6.5
;LAYER_COUNT:69
;LAYER:0
M107
G0 F3600 X76.962 Y76.936 Z0.3
;TYPE:SKIRT
G1 F1500 E0
G1 F1800 X81.856 Y72.903 E0.31639
G1 X87.572 Y69.857 E0.63952
G1 X93.632 Y68.022 E0.95541
G1 X100.02 Y67.394 E1.27565
G1 X106.373 Y68.022 E1.59414
G1 X112.517 Y69.89 E1.91452
G1 X118.108 Y72.886 E2.23098
G1 X123.064 Y76.962 E2.55112
G1 X127.113 Y81.888 E2.86925
G1 X130.127 Y87.523 E3.18807
G1 X131.978 Y93.63 E3.50643
G1 X132.606 Y100.018 E3.82667
G1 X131.978 Y106.373 E4.14526
G1 X130.11 Y112.517 E4.46564
G1 X127.115 Y118.107 E4.78204
G1 X123.038 Y123.064 E5.10224
G1 X118.144 Y127.097 E5.41863
G1 X112.428 Y130.143 E5.74177
G1 X106.368 Y131.978 E6.05766
G1 X99.98 Y132.606 E6.37789
G1 X93.627 Y131.978 E6.69639
G1 X87.483 Y130.11 E7.01677
G1 X81.892 Y127.114 E7.33323
G1 X76.934 Y123.036 E7.65351
G1 X72.902 Y118.143 E7.96982
G1 X69.857 Y112.427 E8.29293
G1 X68.022 Y106.37 E8.60868
G1 X67.394 Y99.982 E8.92892
G1 X68.022 Y93.626 E9.24756
G1 X69.89 Y87.483 E9.56789
G1 X72.886 Y81.892 E9.88435
G1 X76.962 Y76.936 E10.20449
G0 F3600 X77.246 Y77.22
G1 F1800 X82.08 Y73.237 E10.51698
G1 X87.724 Y70.229 E10.83605
G1 X93.712 Y68.416 E11.14819
G1 X100.02 Y67.796 E11.46441
G1 X106.293 Y68.416 E11.7789
G1 X112.362 Y70.261 E12.09537
G1 X117.886 Y73.221 E12.40803
G1 X122.78 Y77.246 E12.72416
G1 X126.778 Y82.11 E13.03828
G1 X129.756 Y87.678 E13.35331
G1 X131.584 Y93.71 E13.66776
G1 X132.204 Y100.018 E13.98399
G1 X131.584 Y106.293 E14.29857
G1 X129.739 Y112.362 E14.61504
G1 X126.78 Y117.885 E14.92763
G1 X122.754 Y122.78 E15.24384
G1 X117.92 Y126.763 E15.55633
G1 X112.276 Y129.771 E15.8754
G1 X106.288 Y131.584 E16.18753
G1 X99.98 Y132.204 E16.50376
G1 X93.707 Y131.584 E16.81824
G1 X87.638 Y129.739 E17.13471
G1 X82.114 Y126.779 E17.44738
G1 X77.218 Y122.752 E17.76365
G1 X73.236 Y117.919 E18.07607
G1 X70.229 Y112.275 E18.39512
G1 X68.416 Y106.29 E18.70711
G1 X67.796 Y99.982 E19.02333
G1 X68.416 Y93.706 E19.33797
G1 X70.261 Y87.638 E19.65439
G1 X73.221 Y82.114 E19.96705
G1 X77.246 Y77.22 E20.28318
G0 F3600 X77.53 Y77.504
G1 F1800 X82.304 Y73.571 E20.59178
G1 X87.876 Y70.601 E20.90679
G1 X93.792 Y68.81 E21.21517
G1 X100.02 Y68.198 E21.52738
G1 X106.213 Y68.81 E21.83786
G1 X112.207 Y70.632 E22.15041
G1 X117.664 Y73.556 E22.45928
G1 X122.496 Y77.53 E22.77141
G1 X126.443 Y82.332 E23.08152
G1 X129.385 Y87.833 E23.39275
G1 X131.19 Y93.79 E23.70329
G1 X131.802 Y100.018 E24.0155
G1 X131.19 Y106.213 E24.32608
G1 X129.368 Y112.207 E24.63863
G1 X126.445 Y117.663 E24.94743
G1 X122.47 Y122.496 E25.25963
G1 X117.696 Y126.429 E25.56822
G1 X112.124 Y129.399 E25.88323
G1 X106.208 Y131.19 E26.19161
G1 X99.98 Y131.802 E26.50383
G1 X93.787 Y131.19 E26.8143
G1 X87.793 Y129.368 E27.12685
G1 X82.336 Y126.444 E27.43572
G1 X77.502 Y122.468 E27.74799
G1 X73.57 Y117.695 E28.05651
G1 X70.601 Y112.123 E28.3715
G1 X68.81 Y106.21 E28.67974
G1 X68.198 Y99.982 E28.99195
G1 X68.81 Y93.786 E29.30258
G1 X70.632 Y87.793 E29.61508
G1 X73.556 Y82.336 E29.92395
G1 X77.53 Y77.504 E30.23608
G0 F3600 X77.814 Y77.788
G1 F1800 X82.528 Y73.905 E30.54077
G1 X88.028 Y70.973 E30.85172
G1 X93.872 Y69.204 E31.15635
G1 X100.02 Y68.6 E31.46455
G1 X106.133 Y69.204 E31.77101
G1 X112.052 Y71.003 E32.07965
G1 X117.442 Y73.891 E32.38473
G1 X122.212 Y77.814 E32.69285
G1 X126.108 Y82.554 E32.99896
G1 X129.014 Y87.988 E33.30639
G1 X130.796 Y93.87 E33.61302
G1 X131.4 Y100.018 E33.92122
G1 X130.796 Y106.133 E34.22778
G1 X128.997 Y112.052 E34.53642
G1 X126.11 Y117.441 E34.84143
G1 X122.186 Y122.212 E35.14962
G1 X117.472 Y126.095 E35.45432
G1 X111.972 Y129.027 E35.76527
G1 X106.128 Y130.796 E36.06989
G1 X99.98 Y131.4 E36.37809
G1 X93.867 Y130.796 E36.68456
G1 X87.948 Y128.997 E36.9932
G1 X82.558 Y126.109 E37.29827
G1 X77.786 Y122.184 E37.60654
G1 X73.904 Y117.471 E37.91116
G1 X70.973 Y111.971 E38.22209
G1 X69.204 Y106.13 E38.52657
G1 X68.6 Y99.982 E38.83477
G1 X69.204 Y93.866 E39.14138
G1 X71.003 Y87.948 E39.44997
G1 X73.891 Y82.558 E39.75505
G1 X77.814 Y77.788 E40.06317
G0 F3600 X78.098 Y78.072
G1 F1800 X82.752 Y74.239 E40.36397
G1 X88.18 Y71.345 E40.67086
G1 X93.952 Y69.598 E40.97173
G1 X100.02 Y69.002 E41.27592
G1 X106.053 Y69.598 E41.57837
G1 X111.897 Y71.374 E41.8831
G1 X117.22 Y74.226 E42.18438
G1 X121.928 Y78.098 E42.48849
G1 X125.773 Y82.776 E42.7906
G1 X128.643 Y88.143 E43.09424
G1 X130.402 Y93.95 E43.39695
G1 X130.998 Y100.018 E43.70114
G1 X130.402 Y106.053 E44.00369
G1 X128.626 Y111.897 E44.30842
G1 X125.775 Y117.219 E44.60963
G1 X121.902 Y121.928 E44.91382
G1 X117.248 Y125.761 E45.21462
G1 X111.82 Y128.655 E45.52151
G1 X106.048 Y130.402 E45.82237
G1 X99.98 Y130.998 E46.12656
G1 X93.947 Y130.402 E46.42902
G1 X88.103 Y128.626 E46.73374
G1 X82.78 Y125.774 E47.03502
G1 X78.07 Y121.9 E47.33928
G1 X74.238 Y117.247 E47.64001
G1 X71.345 Y111.819 E47.94687
G1 X69.598 Y106.05 E48.2476
G1 X69.002 Y99.982 E48.55179
G1 X69.598 Y93.946 E48.85439
G1 X71.374 Y88.103 E49.15907
G1 X74.226 Y82.78 E49.46035
G1 X78.098 Y78.072 E49.76447
G0 F3600 X78.382 Y78.356
G1 F1800 X82.976 Y74.573 E50.06137
G1 X88.332 Y71.717 E50.3642
G1 X94.032 Y69.992 E50.66131
G1 X100.02 Y69.404 E50.96149
G1 X105.973 Y69.992 E51.25993
G1 X111.742 Y71.745 E51.56074
G1 X116.998 Y74.561 E51.85823
G1 X121.644 Y78.382 E52.15834
G1 X125.438 Y82.998 E52.45644
G1 X128.272 Y88.298 E52.75628
G1 X130.008 Y94.03 E53.05508
G1 X130.596 Y100.018 E53.35526
G1 X130.008 Y105.973 E53.6538
G1 X128.255 Y111.742 E53.95461
G1 X125.44 Y116.997 E54.25203
G1 X121.618 Y121.644 E54.55221
G1 X117.024 Y125.427 E54.84912
G1 X111.668 Y128.283 E55.15194
G1 X105.968 Y130.008 E55.44905
G1 X99.98 Y130.596 E55.74923
G1 X94.027 Y130.008 E56.04768
G1 X88.258 Y128.255 E56.34849
G1 X83.002 Y125.439 E56.64597
G1 X78.354 Y121.616 E56.94622
G1 X74.572 Y117.023 E57.24306
G1 X71.717 Y111.667 E57.54586
G1 X69.992 Y105.97 E57.84283
G1 X69.404 Y99.982 E58.14301
G1 X69.992 Y94.026 E58.4416
G1 X71.745 Y88.258 E58.74236
G1 X74.561 Y83.002 E59.03985
G1 X78.382 Y78.356 E59.33996
G0 F3600 X78.666 Y78.64
G1 F1800 X83.2 Y74.907 E59.63297
G1 X88.484 Y72.089 E59.93173
G1 X94.112 Y70.386 E60.22509
G1 X100.02 Y69.806 E60.52126
G1 X105.893 Y70.386 E60.81569
G1 X111.587 Y72.116 E61.11258
G1 X116.776 Y74.896 E61.40628
G1 X121.36 Y78.666 E61.70238
G1 X125.103 Y83.22 E61.99648
G1 X127.901 Y88.453 E62.29253
G1 X129.614 Y94.11 E62.58741
G1 X130.194 Y100.018 E62.88358
G1 X129.614 Y105.893 E63.17811
G1 X127.884 Y111.587 E63.47501
G1 X125.105 Y116.775 E63.76863
G1 X121.334 Y121.36 E64.06481
G1 X116.8 Y125.093 E64.35782
G1 X111.516 Y127.911 E64.65658
G1 X105.888 Y129.614 E64.94994
G1 X99.98 Y130.194 E65.2461
G1 X94.107 Y129.614 E65.54054
G1 X88.413 Y127.884 E65.83743
G1 X83.224 Y125.104 E66.13112
G1 X78.638 Y121.332 E66.42737
G1 X74.906 Y116.799 E66.72031
G1 X72.089 Y111.515 E67.01905
G1 X70.386 Y105.89 E67.31226
G1 X69.806 Y99.982 E67.60843
G1 X70.386 Y94.106 E67.90301
G1 X72.116 Y88.413 E68.19986
G1 X74.896 Y83.224 E68.49355
G1 X78.666 Y78.64 E68.78966
G0 F3600 X78.95 Y78.924
G1 F1800 X83.424 Y75.241 E69.07877
G1 X88.636 Y72.461 E69.37347
G1 X94.192 Y70.78 E69.66307
G1 X100.02 Y70.208 E69.95523
G1 X105.813 Y70.78 E70.24565
G1 X111.432 Y72.487 E70.53863
G1 X116.554 Y75.231 E70.82853
G1 X121.076 Y78.95 E71.12063
G1 X124.768 Y83.442 E71.41072
G1 X127.53 Y88.608 E71.70297
G1 X129.22 Y94.19 E71.99395
G1 X129.792 Y100.018 E72.2861
G1 X129.22 Y105.813 E72.57662
G1 X127.513 Y111.432 E72.8696
G1 X124.77 Y116.553 E73.15943
G1 X121.05 Y121.076 E73.45161
G1 X116.576 Y124.759 E73.74072
G1 X111.364 Y127.539 E74.03542
G1 X105.808 Y129.22 E74.32502
G1 X99.98 Y129.792 E74.61718
G1 X94.187 Y129.22 E74.9076
G1 X88.568 Y127.513 E75.20058
G1 X83.446 Y124.769 E75.49048
G1 X78.922 Y121.048 E75.78272
G1 X75.24 Y116.575 E76.07176
G1 X72.461 Y111.363 E76.36644
G1 X70.78 Y105.81 E76.65589
G1 X70.208 Y99.982 E76.94805
G1 X70.78 Y94.186 E77.23862
G1 X72.487 Y88.568 E77.53156
G1 X75.231 Y83.446 E77.82145
G1 X78.95 Y78.924 E78.11355
G0 F3600 X79.234 Y79.208
G1 F1800 X83.648 Y75.575 E78.39877
G1 X88.788 Y72.833 E78.68941
G1 X94.272 Y71.174 E78.97525
G1 X100.02 Y70.61 E79.2634
G1 X105.733 Y71.174 E79.54981
G1 X111.277 Y72.858 E79.83888
G1 X116.332 Y75.566 E80.12498
G1 X120.792 Y79.234 E80.41308
G1 X124.433 Y83.664 E80.69916
G1 X127.159 Y88.763 E80.98762
G1 X128.826 Y94.27 E81.27468
G1 X129.39 Y100.018 E81.56282
G1 X128.826 Y105.733 E81.84933
G1 X127.142 Y111.277 E82.1384
G1 X124.435 Y116.331 E82.42444
G1 X120.766 Y120.792 E82.7126
G1 X116.352 Y124.425 E82.99782
G1 X111.212 Y127.167 E83.28846
G1 X105.728 Y128.826 E83.5743
G1 X99.98 Y129.39 E83.86245
G1 X94.267 Y128.826 E84.14886
G1 X88.723 Y127.142 E84.43793
G1 X83.668 Y124.434 E84.72403
G1 X79.206 Y120.764 E85.01226
G1 X75.574 Y116.351 E85.29741
G1 X72.833 Y111.211 E85.58803
G1 X71.174 Y105.73 E85.87373
G1 X70.61 Y99.982 E86.16187
G1 X71.174 Y94.266 E86.44843
G1 X72.858 Y88.723 E86.73745
G1 X75.566 Y83.668 E87.02356
G1 X79.234 Y79.208 E87.31165
G0 F3600 X79.518 Y79.492
G1 F1800 X83.872 Y75.909 E87.59297
G1 X88.94 Y73.205 E87.87955
G1 X94.352 Y71.568 E88.16164
G1 X100.02 Y71.012 E88.44577
G1 X105.653 Y71.568 E88.72817
G1 X111.122 Y73.229 E89.01332
G1 X116.11 Y75.901 E89.29563
G1 X120.508 Y79.518 E89.57972
G1 X124.098 Y83.886 E89.8618
G1 X126.788 Y88.918 E90.14647
G1 X128.432 Y94.35 E90.42961
G1 X128.988 Y100.018 E90.71375
G1 X128.432 Y105.653 E90.99624
G1 X126.771 Y111.122 E91.2814
G1 X124.1 Y116.109 E91.56364
G1 X120.482 Y120.508 E91.8478
G1 X116.128 Y124.091 E92.12912
G1 X111.06 Y126.795 E92.4157
G1 X105.648 Y128.432 E92.69779
G1 X99.98 Y128.988 E92.98192
G1 X94.347 Y128.432 E93.26432
G1 X88.878 Y126.771 E93.54947
G1 X83.89 Y124.099 E93.83178
G1 X79.49 Y120.48 E94.11601
G1 X75.908 Y116.127 E94.39726
G1 X73.205 Y111.059 E94.68382
G1 X71.568 Y105.65 E94.96576
G1 X71.012 Y99.982 E95.2499
G1 X71.568 Y94.346 E95.53244
G1 X73.229 Y88.878 E95.81755
G1 X75.901 Y83.89 E96.09986
G1 X79.518 Y79.492 E96.38395
G0 F3600 X79.802 Y79.776
G1 F1800 X84.096 Y76.243 E96.66137
G1 X89.092 Y73.577 E96.94389
G1 X94.432 Y71.962 E97.22222
G1 X100.02 Y71.414 E97.50234
G1 X105.573 Y71.962 E97.78073
G1 X110.967 Y73.6 E98.06197
G1 X115.888 Y76.236 E98.34049
G1 X120.224 Y79.802 E98.62057
G1 X123.763 Y84.108 E98.89864
G1 X126.417 Y89.073 E99.17952
G1 X128.038 Y94.43 E99.45875
G1 X128.586 Y100.018 E99.73887
G1 X128.038 Y105.573 E100.01736
G1 X126.4 Y110.967 E100.2986
G1 X123.765 Y115.887 E100.57704
G1 X120.198 Y120.224 E100.8572
G1 X115.904 Y123.757 E101.13462
G1 X110.908 Y126.423 E101.41714
G1 X105.568 Y128.038 E101.69547
G1 X99.98 Y128.586 E101.97559
G1 X94.427 Y128.038 E102.25398
G1 X89.033 Y126.4 E102.53522
G1 X84.112 Y123.764 E102.81374
G1 X79.774 Y120.196 E103.09396
G1 X76.242 Y115.903 E103.37131
G1 X73.577 Y110.907 E103.65381
G1 X71.962 Y105.57 E103.932
G1 X71.414 Y99.982 E104.21212
G1 X71.962 Y94.426 E104.49065
G1 X73.6 Y89.033 E104.77185
G1 X76.236 Y84.112 E105.05036
G1 X79.802 Y79.776 E105.33045
G0 F3600 X80.086 Y80.06
G1 F1800 X84.32 Y76.577 E105.60397
G1 X89.244 Y73.949 E105.88243
G1 X94.512 Y72.356 E106.15701
G1 X100.02 Y71.816 E106.43312
G1 X105.493 Y72.356 E106.70749
G1 X110.812 Y73.971 E106.98482
G1 X115.666 Y76.571 E107.25954
G1 X119.94 Y80.086 E107.53562
G1 X123.428 Y84.33 E107.80969
G1 X126.046 Y89.228 E108.08677
G1 X127.644 Y94.51 E108.36208
G1 X128.184 Y100.018 E108.6382
G1 X127.644 Y105.493 E108.91267
G1 X126.029 Y110.812 E109.19
G1 X123.43 Y115.665 E109.46465
G1 X119.914 Y119.94 E109.7408
G1 X115.68 Y123.423 E110.01432
G1 X110.756 Y126.051 E110.29278
G1 X105.488 Y127.644 E110.56736
G1 X99.98 Y128.184 E110.84347
G1 X94.507 Y127.644 E111.11784
G1 X89.188 Y126.029 E111.39517
G1 X84.334 Y123.429 E111.66989
G1 X80.058 Y119.912 E111.94611
G1 X76.576 Y115.679 E112.21957
G1 X73.949 Y110.755 E112.498
G1 X72.356 Y105.49 E112.77243
G1 X71.816 Y99.982 E113.04854
G1 X72.356 Y94.506 E113.32307
G1 X73.971 Y89.188 E113.60035
G1 X76.571 Y84.334 E113.87507
G1 X80.086 Y80.06 E114.15115
G0 F3600 X80.37 Y80.344
G1 F1800 X84.544 Y76.911 E114.42078
G1 X89.396 Y74.321 E114.69517
G1 X94.592 Y72.75 E114.96599
G1 X100.02 Y72.218 E115.23809
G1 X105.413 Y72.75 E115.50846
G1 X110.657 Y74.342 E115.78187
G1 X115.444 Y76.906 E116.0528
G1 X119.656 Y80.37 E116.32487
G1 X123.093 Y84.552 E116.59493
G1 X125.675 Y89.383 E116.86822
G1 X127.25 Y94.59 E117.13962
G1 X127.782 Y100.018 E117.41172
G1 X127.25 Y105.413 E117.68218
G1 X125.658 Y110.657 E117.9556
G1 X123.095 Y115.443 E118.22646
G1 X119.63 Y119.656 E118.4986
G1 X115.456 Y123.089 E118.76823
G1 X110.604 Y125.679 E119.04262
G1 X105.408 Y127.25 E119.31344
G1 X99.98 Y127.782 E119.58554
G1 X94.587 Y127.25 E119.85591
G1 X89.343 Y125.658 E120.12932
G1 X84.556 Y123.094 E120.40025
G1 X80.342 Y119.628 E120.67246
G1 X76.91 Y115.455 E120.94202
G1 X74.321 Y110.603 E121.21639
G1 X72.75 Y105.41 E121.48707
G1 X72.218 Y99.982 E121.75917
G1 X72.75 Y94.586 E122.02968
G1 X74.342 Y89.343 E122.30305
G1 X76.906 Y84.556 E122.57397
G1 X80.37 Y80.344 E122.84605
G0 F3600 X80.654 Y80.628
G1 F1800 X84.768 Y77.245 E123.11178
G1 X89.548 Y74.693 E123.38211
G1 X94.672 Y73.144 E123.64918
G1 X100.02 Y72.62 E123.91727
G1 X105.333 Y73.144 E124.18362
G1 X110.502 Y74.713 E124.45312
G1 X115.222 Y77.241 E124.72025
G1 X119.372 Y80.654 E124.98832
G1 X122.758 Y84.774 E125.25438
G1 X125.304 Y89.538 E125.52387
G1 X126.856 Y94.67 E125.79136
G1 X127.38 Y100.018 E126.05945
G1 X126.856 Y105.333 E126.3259
G1 X125.287 Y110.502 E126.5954
G1 X122.76 Y115.221 E126.86246
G1 X119.346 Y119.372 E127.1306
G1 X115.232 Y122.755 E127.39633
G1 X110.452 Y125.307 E127.66667
G1 X105.328 Y126.856 E127.93373
G1 X99.98 Y127.38 E128.20182
G1 X94.667 Y126.856 E128.46817
G1 X89.498 Y125.287 E128.73767
G1 X84.778 Y122.759 E129.0048
G1 X80.626 Y119.344 E129.27301
G1 X77.244 Y115.231 E129.53867
G1 X74.693 Y110.451 E129.80899
G1 X73.144 Y105.33 E130.07591
G1 X72.62 Y99.982 E130.344
G1 X73.144 Y94.666 E130.6105
G1 X74.713 Y89.498 E130.87995
G1 X77.241 Y84.778 E131.14708
G1 X80.654 Y80.628 E131.41515
G0 F3600 X80.938 Y80.912
G1 F1800 X84.992 Y77.579 E131.67698
G1 X89.7 Y75.065 E131.94326
G1 X94.752 Y73.538 E132.20656
G1 X100.02 Y73.022 E132.47064
G1 X105.253 Y73.538 E132.73299
G1 X110.347 Y75.084 E132.99857
G1 X115 Y77.576 E133.26191
G1 X119.088 Y80.938 E133.52597
G1 X122.423 Y84.996 E133.78802
G1 X124.933 Y89.693 E134.05372
G1 X126.462 Y94.75 E134.31729
G1 X126.978 Y100.018 E134.58137
G1 X126.462 Y105.253 E134.84381
G1 X124.916 Y110.347 E135.1094
G1 X122.425 Y114.999 E135.37267
G1 X119.062 Y119.088 E135.6368
G1 X115.008 Y122.421 E135.89864
G1 X110.3 Y124.935 E136.16491
G1 X105.248 Y126.462 E136.42822
G1 X99.98 Y126.978 E136.6923
G1 X94.747 Y126.462 E136.95464
G1 X89.653 Y124.916 E137.22023
G1 X85 Y122.424 E137.48356
G1 X80.91 Y119.06 E137.74777
G1 X77.578 Y115.007 E138.00953
G1 X75.065 Y110.299 E138.27578
G1 X73.538 Y105.25 E138.53894
G1 X73.022 Y99.982 E138.80302
G1 X73.538 Y94.746 E139.06551
G1 X75.084 Y89.653 E139.33105
G1 X77.576 Y85 E139.59439
G1 X80.938 Y80.912 E139.85845
G0 F3600 X81.222 Y81.196
G1 F1800 X85.216 Y77.913 E140.11639
G1 X89.852 Y75.437 E140.3786
G1 X94.831 Y73.932 E140.6381
G1 X100.02 Y73.424 E140.89822
G1 X105.173 Y73.932 E141.15655
G1 X110.192 Y75.455 E141.41823
G1 X114.778 Y77.911 E141.67777
G1 X118.804 Y81.222 E141.93783
G1 X122.088 Y85.218 E142.19587
G1 X124.562 Y89.848 E142.45777
G1 X126.068 Y94.83 E142.71743
G1 X126.576 Y100.018 E142.9775
G1 X126.068 Y105.173 E143.23593
G1 X124.545 Y110.192 E143.49761
